docs/img/all-services/8.svg

<svg width="80" height="80" viewBox="0 0 80 80" fill="none" xmlns="http://www.w3.org/2000/svg">
<path d="M46.1265 32.0784C46.1265 32.0784 47.2475 29.4923 49.8053 29.6594C51.1681 29.7493 52.3932 30.551 53.0209 31.7636C53.4262 32.5459 53.6618 33.6153 53.2283 34.9529C53.0719 35.4367 52.8406 35.8915 52.5522 36.3075C52.4416 36.4683 52.3223 36.6242 52.1947 36.7725C51.6311 37.4278 50.5598 38.4808 49.4873 39.3824C49.4873 39.3824 46.7624 41.567 46.1265 43.0121C45.4907 41.5663 42.7658 39.3824 42.7658 39.3824C41.6932 38.4801 40.622 37.4278 40.0584 36.7725C39.9303 36.6242 39.8115 36.4683 39.7003 36.3075C39.4119 35.8915 39.1807 35.4361 39.0243 34.9529C38.5914 33.6153 38.827 32.5459 39.2323 31.7636C39.8599 30.551 41.0851 29.7493 42.4479 29.6594C45.0057 29.4923 46.1265 32.0784 46.1265 32.0784Z" stroke="#0098D0" stroke-width="2" stroke-miterlimit="10" stroke-linecap="round"/>
<path d="M43.3576 32.4145C43.1704 32.2644 42.9303 32.1462 42.6363 32.1462C42.6099 32.1462 42.5823 32.1469 42.5546 32.1488C42.0633 32.1814 41.6166 32.4736 41.3898 32.9115C41.202 33.2734 41.1805 33.6648 41.3238 34.1072C41.3872 34.3026 41.4815 34.4917 41.6066 34.6714C41.6568 34.7437 41.7077 34.8102 41.7592 34.8699C41.9251 35.0628 42.2091 35.3575 42.5522 35.681C42.4208 35.3499 42.3461 34.9893 42.3461 34.6117C42.3454 33.732 42.7388 32.9454 43.3576 32.4145Z" fill="#0098D0"/>
<path d="M78.5725 78.5659H8.10853C4.4204 78.5659 1.42969 75.5751 1.42969 71.8869V1.42859H71.8937C75.5818 1.42859 78.5725 4.41302 78.5725 8.10115V78.5659Z" stroke="#0098D0" stroke-width="2" stroke-miterlimit="10" stroke-linecap="round"/>
<path d="M7.79297 7.78699H30.9082" stroke="#0098D0" stroke-width="2" stroke-miterlimit="10" stroke-linecap="round"/>
<path d="M7.79297 13.2916H19.3474" stroke="#0098D0" stroke-width="2" stroke-miterlimit="10" stroke-linecap="round"/>
<path d="M23.0039 24.3402C23.0039 24.3402 27.4717 28.6887 37.473 27.3071" stroke="#0098D0" stroke-width="2" stroke-miterlimit="10" stroke-linecap="round"/>
<path d="M35.145 33.893C28.3757 34.0557 25.4529 33.2534 23.0038 31.949C21.1974 30.9864 20.1519 28.9445 20.7896 26.9389C20.7959 26.9194 20.8072 26.9012 20.8166 26.8829" stroke="#0098D0" stroke-width="2" stroke-miterlimit="10" stroke-linecap="round"/>
<path d="M18.5122 33.2106C18.0605 35.1313 18.9313 37.2505 20.7414 38.1163C24.018 39.6846 27.5127 40.5083 33.7749 40.2928" stroke="#0098D0" stroke-width="2" stroke-miterlimit="10" stroke-linecap="round"/>
<path d="M16.3083 40.1954C16.3083 40.1954 16.0715 42.6459 19.4084 44.3693C19.4084 44.3693 23.8499 46.8874 32.1605 46.8874" stroke="#0098D0" stroke-width="2" stroke-miterlimit="10" stroke-linecap="round"/>
<path d="M14.7695 46.4608C14.7695 46.4608 14.9611 49.4993 19.0476 50.7282C19.0476 50.7282 24.6043 52.2783 29.4309 52.5372" stroke="#0098D0" stroke-width="2" stroke-miterlimit="10" stroke-linecap="round"/>
<path d="M17.4464 50.3187C17.4464 50.3187 14.4834 57.6202 18.4304 62.4135C20.6979 65.1673 24.633 65.7483 27.3535 63.4406C29.6763 61.4702 32.9297 59.1989 37.0834 59.1989" stroke="#0098D0" stroke-width="2" stroke-miterlimit="10" stroke-linecap="round"/>
<path d="M56.9997 24.3402C56.9997 24.3402 56.1678 25.1501 54.418 25.9594" stroke="#0098D0" stroke-width="2" stroke-miterlimit="10" stroke-linecap="round"/>
<path d="M57 24.3402C57 24.3402 56.5131 20.6879 51.9975 17.9975C50.1245 16.8823 47.7948 16.8307 45.8464 17.8084C44.1921 18.639 41.9666 19.5249 40.0019 19.5249C38.0379 19.5249 35.8118 18.639 34.1575 17.8084C32.2091 16.8301 29.8794 16.8816 28.0064 17.9975C23.4902 20.6873 23.0039 24.3402 23.0039 24.3402" stroke="#0098D0" stroke-width="2" stroke-miterlimit="10" stroke-linecap="round"/>
<path d="M56.5508 31.3992C58.3578 30.4367 60.1899 29.8285 59.2154 26.9389C59.2085 26.9194 59.1972 26.9012 59.1884 26.8829" stroke="#0098D0" stroke-width="2" stroke-miterlimit="10" stroke-linecap="round"/>
<path d="M61.4874 33.2106C61.9391 35.1313 62.0064 36.768 59.2582 38.1163C58.1398 38.6648 56.985 39.104 55.707 39.4552" stroke="#0098D0" stroke-width="2" stroke-miterlimit="10" stroke-linecap="round"/>
<path d="M63.6964 40.1954C63.6964 40.1954 63.9332 42.6459 60.5963 44.3693C60.5963 44.3693 57.625 46.0538 51.9961 46.667" stroke="#0098D0" stroke-width="2" stroke-miterlimit="10" stroke-linecap="round"/>
<path d="M65.2317 46.4608C65.2317 46.4608 65.0395 49.4993 60.9536 50.7282C60.9536 50.7282 55.3969 52.2783 50.5703 52.5372" stroke="#0098D0" stroke-width="2" stroke-miterlimit="10" stroke-linecap="round"/>
<path d="M62.5549 50.3187C62.5549 50.3187 65.518 57.6202 61.571 62.4135C59.3028 65.1673 55.3684 65.7483 52.6478 63.4406C50.325 61.4702 47.0717 59.1989 42.918 59.1989" stroke="#0098D0" stroke-width="2" stroke-miterlimit="10" stroke-linecap="round"/>
<path d="M37.082 46.8874C37.082 46.8874 37.082 57.3788 37.082 61.3038C37.082 62.1099 37.7355 62.7627 38.541 62.7627H41.4594C42.2655 62.7627 42.9184 62.1093 42.9184 61.3038V46.8874" stroke="#0098D0" stroke-width="2" stroke-miterlimit="10" stroke-linecap="round"/>
<path d="M37.082 66.2673C37.082 66.2673 37.082 66.586 37.082 66.9768C37.082 67.7678 37.7235 68.4093 38.5146 68.4093L41.4864 68.4087C42.2775 68.4087 42.9184 67.7672 42.9184 66.9768V66.2673" stroke="#0098D0" stroke-width="2" stroke-miterlimit="10" stroke-linecap="round"/>
<path d="M37.082 71.6846C37.082 71.6846 37.082 72.0031 37.082 72.3939C37.082 73.1849 37.7235 73.8264 38.5146 73.8264L41.4864 73.8258C42.2775 73.8258 42.9184 73.1843 42.9184 72.3939V71.6846" stroke="#0098D0" stroke-width="2" stroke-miterlimit="10" stroke-linecap="round"/>
<path d="M43.1389 16.0315C43.1389 16.0315 42.7644 15.3009 42.6042 14.0568C42.5213 13.4172 41.9928 12.9297 41.3482 12.9297H40.003H38.6584C38.0132 12.9297 37.4848 13.4172 37.4025 14.0568C37.2422 15.3002 36.8672 16.0315 36.8672 16.0315" stroke="#0098D0" stroke-width="2" stroke-miterlimit="10" stroke-linecap="round"/>
</svg>

<svg width="80" height="80" fill="none" xmlns="http://www.w3.org/2000/svg"><path d="M46.127 32.078s1.12-2.586 3.678-2.419a3.92 3.92 0 013.216 2.105c.405.782.64 1.851.207 3.189a5.177 5.177 0 01-.676 1.354c-.11.161-.23.317-.357.465-.564.656-1.635 1.709-2.708 2.61 0 0-2.725 2.185-3.36 3.63-.636-1.446-3.361-3.63-3.361-3.63-1.073-.902-2.144-1.954-2.708-2.61a5.467 5.467 0 01-1.034-1.82c-.433-1.337-.197-2.406.208-3.188a3.92 3.92 0 013.216-2.105c2.558-.167 3.678 2.42 3.678 2.42z" stroke="#0098D0" stroke-width="2" stroke-miterlimit="10" stroke-linecap="round"/><path d="M43.358 32.414a1.14 1.14 0 00-.803-.265 1.426 1.426 0 00-1.165.762c-.188.362-.21.754-.066 1.196.063.196.157.385.283.564.05.073.1.14.152.199.166.193.45.488.793.811a2.884 2.884 0 01.805-3.267z" fill="#0098D0"/><path d="M78.573 78.566H8.109a6.68 6.68 0 01-6.68-6.68V1.43h70.465a6.674 6.674 0 016.678 6.67v70.465zM7.793 7.787h23.115M7.793 13.292h11.554m3.657 11.048s4.468 4.349 14.469 2.967" stroke="#0098D0" stroke-width="2" stroke-miterlimit="10" stroke-linecap="round"/><path d="M35.145 33.893c-6.77.163-9.692-.64-12.141-1.944-1.807-.963-2.852-3.005-2.214-5.01.006-.02.017-.038.027-.056m-2.305 6.327c-.451 1.921.42 4.04 2.23 4.906 3.276 1.569 6.77 2.392 13.033 2.177m-17.467-.098s-.236 2.45 3.1 4.174c0 0 4.442 2.518 12.752 2.518m-17.39-.427s.191 3.04 4.278 4.268c0 0 5.556 1.55 10.383 1.81m-11.985-2.219s-2.963 7.301.984 12.094c2.268 2.754 6.203 3.335 8.924 1.028 2.322-1.97 5.576-4.242 9.73-4.242M57 24.34s-.832.81-2.582 1.62M57 24.34s-.487-3.652-5.002-6.343c-1.873-1.115-4.203-1.166-6.152-.189-1.654.831-3.88 1.717-5.844 1.717-1.964 0-4.19-.886-5.845-1.717-1.948-.978-4.278-.926-6.15.19-4.517 2.69-5.003 6.342-5.003 6.342M56.55 31.4c1.808-.963 3.64-1.572 2.665-4.461-.007-.02-.018-.038-.027-.056m2.299 6.327c.452 1.921.52 3.558-2.229 4.906a19.969 19.969 0 01-3.551 1.34m7.989.739s.237 2.45-3.1 4.174c0 0-2.971 1.685-8.6 2.298m13.236-.207s-.192 3.04-4.278 4.268c0 0-5.557 1.55-10.384 1.81m11.985-2.219s2.963 7.301-.984 12.094c-2.268 2.754-6.203 3.335-8.923 1.028-2.323-1.97-5.576-4.242-9.73-4.242" stroke="#0098D0" stroke-width="2" stroke-miterlimit="10" stroke-linecap="round"/><path d="M37.082 46.887v14.417a1.46 1.46 0 001.459 1.459h2.918a1.46 1.46 0 001.46-1.46V46.888m-5.837 19.379v.71c0 .79.642 1.432 1.433 1.432h2.971c.792 0 1.432-.642 1.432-1.432v-.71m-5.836 5.418v.709c0 .79.642 1.432 1.433 1.432h2.971c.792 0 1.432-.642 1.432-1.432v-.71m.221-55.652s-.375-.731-.535-1.975a1.275 1.275 0 00-1.256-1.127h-2.69c-.645 0-1.173.487-1.255 1.127-.16 1.243-.536 1.975-.536 1.975" stroke="#0098D0" stroke-width="2" stroke-miterlimit="10" stroke-linecap="round"/></svg>
